icons/svg/seamark/beacon_pillar.svg

<?xml version="1.0" encoding="UTF-8" standalone="no"?>
<svg
   xmlns:dc="http://purl.org/dc/elements/1.1/"
   xmlns:cc="http://creativecommons.org/ns#"
   xmlns:rdf="http://www.w3.org/1999/02/22-rdf-syntax-ns#"
   xmlns:svg="http://www.w3.org/2000/svg"
   xmlns="http://www.w3.org/2000/svg"
   xmlns:sodipodi="http://sodipodi.sourceforge.net/DTD/sodipodi-0.dtd"
   xmlns:inkscape="http://www.inkscape.org/namespaces/inkscape"
   width="580"
   height="580"
   id="svg2"
   version="1.1"
   inkscape:version="0.48.4 r9939"
   sodipodi:docname="beacon_pillar.svg">
  <defs
     id="defs13">
    <inkscape:path-effect
       effect="gears"
       id="path-effect3774"
       is_visible="true"
       teeth="6"
       phi="-1.2" />
    <inkscape:path-effect
       effect="bend_path"
       id="path-effect3772"
       is_visible="false"
       bendpath="m 95.790098,316.51174 c 144.429032,-206.42506 223.313032,-11.7428 339.548092,0"
       prop_scale="1.19"
       scale_y_rel="false"
       vertical="false"
       bendpath-nodetypes="cc" />
  </defs>
  <sodipodi:namedview
     pagecolor="#ffffff"
     bordercolor="#666666"
     borderopacity="1"
     objecttolerance="10"
     gridtolerance="10"
     guidetolerance="10"
     inkscape:pageopacity="0"
     inkscape:pageshadow="2"
     inkscape:window-width="1920"
     inkscape:window-height="1004"
     id="namedview11"
     showgrid="false"
     inkscape:zoom="0.70710678"
     inkscape:cx="611.26685"
     inkscape:cy="363.97468"
     inkscape:window-x="1680"
     inkscape:window-y="0"
     inkscape:window-maximized="1"
     inkscape:current-layer="svg2"
     inkscape:object-nodes="false"
     inkscape:object-paths="false"
     inkscape:snap-grids="true"
     inkscape:snap-page="false"
     inkscape:snap-intersection-paths="false"
     inkscape:snap-midpoints="true"
     inkscape:snap-object-midpoints="true"
     inkscape:snap-smooth-nodes="true"
     inkscape:snap-nodes="false" />
  <metadata
     id="metadata2975">image/svg+xmlen<rdf:RDF>
  <cc:Work
     rdf:about="">
    <dc:format>image/svg+xml</dc:format>
    <dc:type
       rdf:resource="http://purl.org/dc/dcmitype/StillImage" />
    <dc:title />
  </cc:Work>
</rdf:RDF>
</metadata>
  <path
     style="font-size:medium;font-style:normal;font-variant:normal;font-weight:normal;font-stretch:normal;text-indent:0;text-align:start;text-decoration:none;line-height:normal;letter-spacing:normal;word-spacing:normal;text-transform:none;direction:ltr;block-progression:tb;writing-mode:lr-tb;text-anchor:start;baseline-shift:baseline;opacity:0.42608696;color:#000000;fill:#acd8f3;fill-opacity:1;fill-rule:nonzero;stroke:#a35151;stroke-width:0;stroke-linecap:round;stroke-linejoin:miter;stroke-miterlimit:4;stroke-opacity:1;stroke-dashoffset:0;marker:none;visibility:visible;display:inline;overflow:visible;enable-background:accumulate;font-family:Sans;-inkscape-font-specification:Sans"
     d="m 253.71875,161.9375 c 1.36226,1e-5 -12.39777,2.5481 -11.125,2.0625 1.27277,-0.4856 -10.6723,6.78241 -9.65625,5.875 1.01605,-0.90741 -7.56333,10.1475 -6.9375,8.9375 0.62583,-1.21 -3.46588,12.19735 -3.3125,10.84375 l 0.0312,0 -23.03125,186.8125 -65.71875,106.5 -27.90625,0 c -5.55529,-8.8e-4 -11.076713,2.28565 -15.004893,6.21384 -3.928181,3.92819 -6.214704,9.44962 -6.213807,15.00491 l 0,25 c -8.97e-4,5.5553 2.285634,11.07673 6.213825,15.00493 3.92819,3.92819 9.449625,6.21472 15.004925,6.21382 l 121.8125,0 c 11.50109,18.67203 31.94647,31.21875 55.28125,31.21875 23.33478,0 43.78016,-12.54672 55.28125,-31.21875 l 121.8125,0 c 5.5553,9e-4 11.07673,-2.28563 15.00493,-6.21382 3.92819,-3.9282 6.21472,-9.44963 6.21382,-15.00493 l 0,-25 c 9e-4,-5.5553 -2.28563,-11.07673 -6.21382,-15.00493 -3.9282,-3.92819 -9.44963,-6.21472 -15.00493,-6.21382 l -28.96875,0 -68.0625,-106.5 -20.3125,-186.4375 c 0.1374,1.36586 -3.80621,-12.16292 -3.1875,-10.9375 0.61871,1.22542 -7.92374,-9.984 -6.90625,-9.0625 1.01749,0.9215 -10.96804,-6.49466 -9.6875,-6 1.28054,0.49466 -12.59151,-2.09557 -11.21875,-2.09375 -0.0104,-1e-5 -0.0208,-1e-5 -0.0312,0 l -58.15625,0 z"
     id="path3823"
     inkscape:connector-curvature="0"
     sodipodi:nodetypes="cssscccccsccsccsccsccsccccssscccc" />
  <path
     style="color:#000000;fill:#bdbdbd;fill-opacity:1;fill-rule:nonzero;stroke:#a35151;stroke-width:0;stroke-linecap:round;stroke-linejoin:miter;stroke-miterlimit:4;stroke-opacity:1;stroke-dashoffset:0;marker:none;visibility:visible;display:inline;overflow:visible;enable-background:accumulate"
     d="m 262.70044,205.16406 40.38709,-0.0705 20.27819,191.69876 79.29156,117.17653 -237.53757,-3.85285 74.53778,-113.94342 z"
     id="rect2987"
     inkscape:connector-curvature="0"
     sodipodi:nodetypes="ccccccc" />
  <path
     style="opacity:0.79199997;color:#000000;fill:none;stroke:#000000;stroke-width:20;stroke-linecap:round;stroke-linejoin:round;stroke-miterlimit:4;stroke-opacity:1;stroke-dasharray:none;stroke-dashoffset:0;marker:none;visibility:visible;display:inline;overflow:visible;enable-background:accumulate"
     d="M 253.75,195.75742 229.95362,393.84666 151.5,513.96875 l 262.65625,0 -81.18036,-119.95687 -21.06964,-198.25446 z"
     id="rect3122"
     inkscape:connector-curvature="0"
     sodipodi:nodetypes="ccccccc" />
  <path
     style="fill:none;stroke:#000000;stroke-width:25;stroke-linecap:butt;stroke-linejoin:miter;stroke-miterlimit:4;stroke-opacity:1;stroke-dasharray:none"
     d="m 106.0882,516.57012 354.21851,0"
     id="path3759"
     inkscape:connector-curvature="0"
     sodipodi:nodetypes="cc" />
  <path
     sodipodi:type="arc"
     style="color:#000000;fill:#fefefe;fill-opacity:1;stroke:#000000;stroke-width:25;stroke-linecap:round;stroke-linejoin:round;stroke-miterlimit:10;stroke-opacity:1;stroke-dasharray:none;stroke-dashoffset:0;marker:none;visibility:visible;display:inline;overflow:visible;enable-background:accumulate"
     id="path3759-1"
     sodipodi:cx="210.27438"
     sodipodi:cy="76.036606"
     sodipodi:rx="40.838413"
     sodipodi:ry="40.838413"
     d="m 251.1128,76.036606 a 40.838413,40.838413 0 1 1 -81.67683,0 40.838413,40.838413 0 1 1 81.67683,0 z"
     transform="matrix(0.82289092,0,0,0.82289092,110.16458,453.8318)" />
</svg>

<svg width="580" height="580" viewBox="0 0 580 580" fill="none" xmlns="http://www.w3.org/2000/svg">
<g clip-path="url(#clip0)">
<path opacity="0.426087" d="M253.719 161.938C255.081 161.938 241.321 164.486 242.594 164C243.867 163.514 231.921 170.782 232.938 169.875C233.954 168.968 225.374 180.023 226 178.813C226.626 177.603 222.534 191.01 222.688 189.656H222.719L199.687 376.469L133.969 482.969H106.062C100.507 482.968 94.9857 485.254 91.0576 489.183C87.1294 493.111 84.8429 498.632 84.8438 504.188V529.188C84.8429 534.743 87.1294 540.264 91.0576 544.192C94.9858 548.121 100.507 550.407 106.062 550.406H227.875C239.376 569.078 259.821 581.625 283.156 581.625C306.491 581.625 326.936 569.078 338.438 550.406H460.25C465.805 550.407 471.327 548.121 475.255 544.192C479.183 540.264 481.47 534.743 481.469 529.188V504.188C481.47 498.632 479.183 493.111 475.255 489.183C471.327 485.254 465.805 482.968 460.25 482.969H431.281L363.219 376.469L342.906 190.031C343.044 191.397 339.1 177.868 339.719 179.094C340.337 180.319 331.795 169.11 332.812 170.031C333.83 170.953 321.844 163.537 323.125 164.031C324.406 164.526 310.533 161.936 311.906 161.938C311.896 161.937 311.885 161.937 311.875 161.938H253.719H253.719Z" fill="#ACD8F3"/>
<path d="M262.7 205.164L303.087 205.094L323.366 396.792L402.657 513.969L165.12 510.116L239.657 396.173L262.7 205.164Z" fill="#BDBDBD"/>
<path opacity="0.792" d="M253.75 195.757L229.954 393.847L151.5 513.969H414.156L332.976 394.012L311.906 195.757H253.75Z" stroke="black" stroke-width="20" stroke-linecap="round" stroke-linejoin="round"/>
<path d="M106.088 516.57H460.307" stroke="black" stroke-width="25"/>
<path d="M316.803 516.402C316.803 525.314 313.262 533.862 306.96 540.164C300.658 546.467 292.11 550.007 283.197 550.007C274.285 550.007 265.737 546.467 259.435 540.164C253.132 533.862 249.592 525.314 249.592 516.402C249.592 507.489 253.132 498.941 259.435 492.639C265.737 486.337 274.285 482.796 283.197 482.796C292.11 482.796 300.658 486.337 306.96 492.639C313.262 498.941 316.803 507.489 316.803 516.402V516.402Z" fill="#FEFEFE" stroke="black" stroke-width="20.5723" stroke-miterlimit="10" stroke-linecap="round" stroke-linejoin="round"/>
</g>
<defs>
<clipPath id="clip0">
<path d="M0 0H580V580H0V0Z" fill="white"/>
</clipPath>
</defs>
</svg>
